resources/images/notification_play_hover_dark.svg

<?xml version="1.0" encoding="UTF-8" standalone="no"?>
<svg
   xml:space="preserve"
   style="enable-background:new 0 0 800 800;"
   viewBox="0 0 800 800"
   y="0px"
   x="0px"
   id="Layer_1"
   version="1.1"
   xmlns="http://www.w3.org/2000/svg"
   xmlns:svg="http://www.w3.org/2000/svg"
   xmlns:rdf="http://www.w3.org/1999/02/22-rdf-syntax-ns#"
   xmlns:cc="http://creativecommons.org/ns#"
   xmlns:dc="http://purl.org/dc/elements/1.1/"><metadata
   id="metadata15"><rdf:RDF><cc:Work
       rdf:about=""><dc:format>image/svg+xml</dc:format><dc:type
         rdf:resource="http://purl.org/dc/dcmitype/StillImage" /></cc:Work></rdf:RDF></metadata><defs
   id="defs13" />
<style
   id="style2"
   type="text/css">
	.st0{fill:#323a3e;}
</style>

<circle
   style="fill:#3e3e45;fill-opacity:1;stroke-width:9.17961"
   id="path1"
   cx="400"
   cy="400"
   r="381.60001" /><path
   id="path6"
   d="M 519.71435,400.1888 335.90365,538.62534 V 261.9535 l 183.8107,138.23531 m 78.87661,0 c 0,-7.24377 -3.21945,-14.38694 -9.65835,-19.21612 L 317.29119,176.63795 c -15.89606,-11.97235 -38.53284,-0.60365 -38.53284,19.21612 v 408.77008 c 0,19.81976 22.63678,31.18846 38.53284,19.21611 L 588.93261,419.30432 c 6.43891,-4.72858 9.65836,-11.87174 9.65835,-19.11551 z"
   class="st0"
   style="fill:#818183;fill-opacity:1;stroke-width:1.00608" />

<path
   id="path19"
   d="m 281.84868,185.10573 c 2.44351,-4.88988 5.71721,-8.13024 11.13691,-11.02344 4.06748,-2.17136 15.17413,-2.12275 19.56266,0.0857 3.81603,1.92031 275.45697,206.15603 279.08658,209.83384 3.97422,4.02692 5.77991,8.28678 6.19293,14.60974 0.32157,4.92269 0.085,6.30769 -1.79177,10.48965 -1.1892,2.64996 -3.29912,5.88665 -4.68867,7.19266 -5.07281,4.76777 -274.92684,207.43959 -278.7973,209.38856 -5.51402,2.77659 -14.32479,2.82602 -19.56443,0.10984 -4.58637,-2.37764 -9.23863,-6.79814 -11.44598,-10.87586 l -1.7289,-3.19391 -0.20548,-210.85791 -0.20548,-210.85789 z m 54.05497,353.51961 c 1.18777,-0.0724 183.44981,-137.87757 183.44981,-138.70325 0,-0.84255 -182.30861,-138.30401 -183.44981,-138.32193 -0.32937,-0.005 -0.59886,62.33157 -0.59886,138.52611 0,76.19454 0.26949,138.51914 0.59886,138.49907 z"
   style="fill:#818183;fill-opacity:1;stroke-width:0.798472" /><path
   style="fill:#818183;fill-opacity:1;stroke-width:1.00608"
   class="st0"
   d="M 519.71435,400.18878 335.90365,538.62532 V 261.95348 l 183.8107,138.23532 m 78.87661,0 c 0,-7.24378 -3.21945,-14.38694 -9.65835,-19.21612 L 317.29119,176.63794 c -15.89606,-11.97235 -38.53284,-0.60365 -38.53284,19.21611 v 408.77009 c 0,19.81976 22.63678,31.18846 38.53284,19.21611 L 588.93261,419.30431 c 6.43891,-4.72858 9.65836,-11.87174 9.65835,-19.11551 z"
   id="path6-2" /><path
   style="fill:#818183;fill-opacity:1;stroke-width:0.798472"
   d="m 281.84868,185.10572 c 2.44351,-4.88988 5.71721,-8.13024 11.13691,-11.02344 4.06748,-2.17137 15.17413,-2.12275 19.56266,0.0857 3.81603,1.92031 275.45697,206.15603 279.08658,209.83384 3.97422,4.02692 5.77991,8.28678 6.19293,14.60974 0.32157,4.92269 0.085,6.30769 -1.79177,10.48964 -1.1892,2.64997 -3.29912,5.88666 -4.68867,7.19267 -5.07281,4.76777 -274.92684,207.43958 -278.7973,209.38856 -5.51402,2.77659 -14.32479,2.82602 -19.56443,0.10984 -4.58637,-2.37764 -9.23863,-6.79814 -11.44598,-10.87586 l -1.7289,-3.19391 -0.20548,-210.85791 -0.20548,-210.85789 z m 54.05497,353.5196 c 1.18777,-0.0724 183.44981,-137.87756 183.44981,-138.70324 0,-0.84255 -182.30861,-138.30401 -183.44981,-138.32193 -0.32937,-0.005 -0.59886,62.33157 -0.59886,138.5261 0,76.19455 0.26949,138.51915 0.59886,138.49907 z"
   id="path19-3" /></svg>

<svg width="800" height="800" viewBox="0 0 800 800" fill="none" xmlns="http://www.w3.org/2000/svg">
<path d="M400 781.6C610.752 781.6 781.6 610.752 781.6 400C781.6 189.248 610.752 18.3999 400 18.3999C189.249 18.3999 18.4004 189.248 18.4004 400C18.4004 610.752 189.249 781.6 400 781.6Z" fill="#3E3E45"/>
<path d="M519.715 400.189L335.904 538.626V261.954L519.715 400.189ZM598.591 400.189C598.591 392.945 595.372 385.802 588.933 380.973L317.292 176.638C301.396 164.666 278.759 176.034 278.759 195.854V604.624C278.759 624.444 301.396 635.813 317.292 623.84L588.933 419.305C595.372 414.576 598.591 407.433 598.591 400.189Z" fill="#818183"/>
<path d="M281.848 185.106C284.292 180.216 287.566 176.976 292.985 174.082C297.053 171.911 308.159 171.96 312.548 174.168C316.364 176.088 588.005 380.324 591.634 384.002C595.609 388.029 597.414 392.289 597.827 398.612C598.149 403.534 597.912 404.919 596.036 409.101C594.846 411.751 592.737 414.988 591.347 416.294C586.274 421.062 316.42 623.734 312.55 625.683C307.036 628.459 298.225 628.509 292.985 625.792C288.399 623.415 283.747 618.994 281.539 614.917L279.81 611.723L279.605 400.865L279.399 190.007L281.848 185.106ZM335.903 538.625C337.091 538.553 519.353 400.748 519.353 399.922C519.353 399.08 337.045 261.618 335.903 261.6C335.574 261.595 335.304 323.932 335.304 400.126C335.304 476.321 335.574 538.646 335.903 538.625Z" fill="#818183"/>
<path d="M519.715 400.189L335.904 538.626V261.954L519.715 400.189ZM598.591 400.189C598.591 392.945 595.372 385.802 588.933 380.973L317.292 176.638C301.396 164.666 278.759 176.035 278.759 195.854V604.624C278.759 624.444 301.396 635.813 317.292 623.84L588.933 419.305C595.372 414.576 598.591 407.433 598.591 400.189Z" fill="#323A3E"/>
<path d="M281.848 185.106C284.292 180.216 287.566 176.976 292.985 174.082C297.053 171.911 308.159 171.96 312.548 174.168C316.364 176.088 588.005 380.324 591.634 384.002C595.609 388.029 597.414 392.289 597.827 398.612C598.149 403.534 597.912 404.919 596.036 409.101C594.846 411.751 592.737 414.988 591.347 416.294C586.274 421.062 316.42 623.734 312.55 625.683C307.036 628.459 298.225 628.509 292.985 625.792C288.399 623.415 283.747 618.994 281.539 614.917L279.81 611.723L279.605 400.865L279.399 190.007L281.848 185.106ZM335.903 538.625C337.091 538.553 519.353 400.748 519.353 399.922C519.353 399.08 337.045 261.618 335.903 261.6C335.574 261.595 335.304 323.932 335.304 400.126C335.304 476.321 335.574 538.646 335.903 538.625Z" fill="#818183"/>
</svg>
